src/img/logo.svg

<svg xmlns="http://www.w3.org/2000/svg" version="1.1" xmlns:xlink="http://www.w3.org/1999/xlink" xmlns:svgjs="http://svgjs.com/svgjs" width="256px" height="256px"><svg height="256px" width="256px" version="1.1" id="SvgjsSvg1003" xmlns="http://www.w3.org/2000/svg" xmlns:xlink="http://www.w3.org/1999/xlink" viewBox="0 0 512.00 512.00" xml:space="preserve" fill="#c2c1c1" stroke="#c2c1c1" stroke-width="10.751999999999999">

<g id="SvgjsG1002" stroke-width="0"></g>

<g id="SvgjsG1001" stroke-linecap="round" stroke-linejoin="round"></g>

<g id="SvgjsG1000"> <style type="text/css"> .st0{fill:#000000;} </style> <g> <path class="st0" d="M511.636,269.628c-0.424-2.366-1.152-4.744-2.093-7.334c-1.777-4.829-4.386-10.368-7.734-16.616 c-5.848-10.908-13.928-23.889-23.514-37.629c-14.377-20.602-32.091-42.859-50.606-61.877c-9.263-9.506-18.733-18.205-28.148-25.491 c-9.433-7.28-18.8-13.17-28.111-16.974c-2.827-1.147-6.078-0.691-8.481,1.183c-2.402,1.887-3.628,4.932-3.191,7.953 c0.449,3.13,0.661,6.164,0.661,9.124c-0.006,6.139-0.904,11.951-2.53,17.484c-2.833,9.682-7.892,18.563-14.14,26.462 c-9.354,11.854-21.384,21.42-31.642,27.935c-5.12,3.258-9.797,5.764-13.376,7.432c-1.007,0.467-1.911,0.862-2.718,1.189 c0.236-1.262,0.57-2.736,0.976-4.368c0.868-3.506,2.069-7.71,3.203-12.321c1.141-4.622,2.239-9.652,2.882-14.942 c0.17-1.419,0.272-2.73,0.272-4.034c0-0.97-0.054-1.935-0.23-2.996c-0.133-0.795-0.334-1.644-0.698-2.584 c-0.279-0.71-0.655-1.468-1.201-2.244c-0.801-1.159-2.05-2.36-3.573-3.136c-0.752-0.388-1.546-0.667-2.323-0.844 c-0.782-0.176-1.529-0.248-2.221-0.242c-1.043,0-1.941,0.151-2.718,0.352c-1.48,0.4-2.536,0.94-3.458,1.474 c-0.873,0.509-1.614,1.044-2.33,1.595c-1.34,1.037-2.584,2.172-3.876,3.397c-2.239,2.148-4.586,4.592-7.031,7.074 c-1.832,1.862-3.712,3.737-5.575,5.478c-2.785,2.609-5.575,4.902-7.868,6.339c-1.153,0.722-2.16,1.226-2.912,1.499 c-0.752,0.279-1.213,0.321-1.328,0.315c-0.073,0-0.261-0.012-0.564-0.084c-0.57-0.127-1.547-0.492-2.73-1.165 c-2.087-1.159-4.75-3.209-7.45-5.648c-2.038-1.826-4.113-3.876-6.139-5.92c-1.529-1.548-3.021-3.082-4.477-4.556 c-1.092-1.104-2.154-2.166-3.197-3.173c-1.577-1.505-3.07-2.87-4.762-4.095c-0.861-0.619-1.771-1.207-2.942-1.759 c-0.588-0.273-1.256-0.534-2.044-0.752c-0.789-0.206-1.711-0.37-2.803-0.37c-0.813-0.006-1.711,0.097-2.645,0.352 c-0.812,0.218-1.638,0.564-2.39,1.013c-1.335,0.783-2.402,1.875-3.125,2.924c-0.54,0.795-0.916,1.566-1.189,2.281 c-0.406,1.073-0.612,2.026-0.734,2.918c-0.122,0.892-0.164,1.729-0.164,2.566c0,1.298,0.103,2.608,0.272,4.028 c0.989,8.05,3.003,15.536,4.659,21.809c0.837,3.124,1.583,5.939,2.087,8.268c0.121,0.552,0.224,1.068,0.316,1.559 c-1.347-0.558-3.022-1.305-4.902-2.251c-4.883-2.432-11.198-6.102-17.823-10.858c-9.936-7.122-20.553-16.713-28.482-28.118 c-3.968-5.709-7.274-11.86-9.572-18.399c-2.306-6.54-3.622-13.474-3.622-20.881c0-2.96,0.206-5.993,0.655-9.124 c0.437-3.015-0.782-6.066-3.19-7.953c-2.402-1.874-5.654-2.33-8.481-1.183c-7.814,3.191-15.657,7.856-23.555,13.571 c-13.807,9.997-27.79,23.264-41.16,37.866c-20.05,21.905-38.667,46.82-52.432,68.24c-6.879,10.72-12.539,20.541-16.579,28.827 c-2.026,4.15-3.646,7.905-4.829,11.32c-0.589,1.711-1.068,3.343-1.42,4.95C0.243,270.089,0,271.673,0,273.413 c0,1.195,0.109,2.481,0.522,3.931c0.212,0.722,0.497,1.487,0.91,2.263c0.412,0.77,0.958,1.559,1.626,2.281v-0.006 c1.474,1.595,3.228,2.742,4.926,3.524c1.59,0.728,3.154,1.177,4.659,1.487c2.839,0.564,5.544,0.698,8.329,0.782 c2.432,0.061,4.92,0.061,7.48,0.109c4.477,0.092,9.173,0.34,13.959,1.25c3.597,0.685,7.237,1.722,10.919,3.348 c5.52,2.439,11.168,6.158,16.894,12.254c5.703,6.091,11.478,14.608,16.877,26.577c1.134,2.529,3.415,4.338,6.133,4.878 c2.718,0.534,5.514-0.274,7.523-2.184c4.434-4.192,8.899-7.31,13.164-9.33c4.277-2.026,8.305-2.967,12.09-2.967 c3.324,0.012,6.503,0.704,9.767,2.257c2.444,1.177,4.932,2.851,7.443,5.174c3.767,3.47,7.571,8.408,11.138,15.057 c3.567,6.643,6.885,14.984,9.736,25.127c0.746,2.663,2.754,4.816,5.368,5.738c2.615,0.928,5.532,0.522,7.796-1.08 c6.381-4.526,12.036-7.54,16.962-9.397c4.938-1.862,9.123-2.578,12.739-2.578c2.712,0,5.12,0.401,7.389,1.098 c1.983,0.618,3.858,1.48,5.678,2.572c3.166,1.905,6.163,4.55,8.954,7.692c4.18,4.714,7.85,10.543,11.053,16.209 c1.602,2.839,3.1,5.63,4.537,8.256c1.444,2.627,2.821,5.084,4.295,7.328c1.583,2.408,4.252,3.852,7.14,3.852 c2.881,0,5.55-1.444,7.14-3.852c1.28-1.959,2.481-4.064,3.731-6.315c2.172-3.931,4.464-8.299,7.048-12.636 c1.935-3.246,4.022-6.46,6.279-9.409c3.385-4.428,7.146-8.208,11.198-10.768c2.026-1.28,4.125-2.275,6.357-2.961 c2.232-0.686,4.617-1.062,7.28-1.068c3.616,0.006,7.802,0.722,12.74,2.578c4.926,1.856,10.58,4.871,16.962,9.397 c2.269,1.602,5.18,2.008,7.795,1.08c2.614-0.922,4.623-3.075,5.369-5.738c2.536-9.015,5.436-16.61,8.56-22.846 c2.336-4.683,4.799-8.608,7.298-11.823c3.749-4.828,7.559-8.044,11.235-10.058c3.695-2.002,7.256-2.876,10.992-2.888 c3.791,0,7.819,0.94,12.096,2.967c4.271,2.026,8.736,5.138,13.164,9.336c2.014,1.904,4.81,2.712,7.528,2.178 c2.711-0.54,4.992-2.348,6.133-4.878c3.567-7.904,7.292-14.31,11.059-19.498c3.294-4.537,6.618-8.147,9.894-11.047 c5.764-5.071,11.405-8.02,16.938-9.876c8.298-2.779,16.446-2.979,23.914-3.051c1.868-0.024,3.694-0.043,5.502-0.103 c2.712-0.116,5.375-0.304,8.184-0.983c1.408-0.352,2.864-0.844,4.332-1.601c1.468-0.752,2.942-1.802,4.21-3.173 c0.674-0.722,1.213-1.504,1.626-2.275c0.62-1.171,0.959-2.293,1.165-3.325c0.206-1.031,0.267-1.971,0.267-2.869 C512,272.085,511.855,270.853,511.636,269.628z M490.252,270.605c-4.276,0.103-10.003-0.018-16.53,0.612 c-4.896,0.48-10.264,1.395-15.858,3.215c-4.198,1.365-8.517,3.24-12.824,5.782c-6.46,3.809-12.873,9.136-18.897,16.331 c-4.168,4.98-8.147,10.871-11.908,17.774c-2.857-2.002-5.8-3.737-8.82-5.181c-6.2-2.942-12.758-4.617-19.424-4.61 c-5.824-0.012-11.678,1.304-17.156,3.937c-4.113,1.972-8.02,4.665-11.647,8.026c-5.448,5.041-10.313,11.544-14.596,19.528 c-2.815,5.247-5.387,11.156-7.704,17.731c-3.798-2.141-7.486-3.888-11.077-5.247c-6.576-2.481-12.854-3.676-18.77-3.676 c-4.404,0-8.596,0.662-12.46,1.868c-3.385,1.056-6.527,2.512-9.402,4.246c-5.047,3.04-9.294,6.886-12.94,10.998 c-5.466,6.188-9.664,13.006-13.134,19.121c-0.376,0.674-0.74,1.323-1.104,1.978c-1.007-1.826-2.087-3.725-3.24-5.666 c-2.166-3.628-4.598-7.389-7.401-11.053c-4.204-5.484-9.258-10.774-15.615-14.814c-3.178-2.014-6.685-3.694-10.5-4.865 c-3.816-1.171-7.941-1.82-12.285-1.814c-5.908-0.006-12.193,1.195-18.769,3.676c-3.586,1.359-7.274,3.1-11.065,5.242 c-1.935-5.46-4.034-10.464-6.303-15.002c-2.772-5.55-5.806-10.428-9.087-14.662c-4.926-6.339-10.459-11.253-16.532-14.565 c-6.054-3.331-12.642-4.999-19.194-4.993c-6.661,0-13.224,1.675-19.412,4.617c-3.021,1.438-5.964,3.172-8.82,5.181 c-2.536-4.671-5.181-8.869-7.911-12.636c-3.967-5.471-8.141-10.04-12.418-13.825c-7.486-6.618-15.342-10.78-22.834-13.273 c-11.24-3.742-21.584-3.828-29.124-3.931c-1.887-0.012-3.592-0.037-5.06-0.091c-1.019-0.036-1.917-0.097-2.681-0.176 c0.2-0.655,0.448-1.395,0.74-2.202c1.353-3.676,3.664-8.669,6.758-14.438c5.418-10.106,13.2-22.646,22.47-35.925 c13.898-19.934,31.156-41.591,48.834-59.729c8.832-9.063,17.768-17.253,26.364-23.89c3.992-3.094,7.911-5.83,11.696-8.19 c0.327,6.364,1.407,12.472,3.1,18.241c3.591,12.242,9.821,23.01,17.138,32.261c10.986,13.874,24.392,24.435,35.87,31.745 c5.745,3.658,11.01,6.492,15.342,8.512c2.178,1.007,4.113,1.814,5.848,2.433c0.873,0.309,1.686,0.57,2.511,0.794 c0.825,0.219,1.626,0.401,2.682,0.516l0.018,0.006c0.728,0.066,1.45,0.103,2.183,0.103c1.814,0,3.731-0.236,5.672-0.971 c1.456-0.546,2.906-1.402,4.125-2.517c0.91-0.831,1.68-1.796,2.281-2.791c0.898-1.486,1.413-3.003,1.71-4.416 c0.303-1.408,0.395-2.736,0.395-3.998c0-1.498-0.134-2.924-0.334-4.355c-0.352-2.494-0.922-4.999-1.565-7.602 c-0.849-3.403-1.844-6.988-2.785-10.67c1.104,1.092,2.239,2.19,3.404,3.288c3.24,3.008,6.673,5.945,10.464,8.335 c1.898,1.194,3.901,2.256,6.096,3.063c2.184,0.801,4.598,1.365,7.238,1.371c1.571,0,3.063-0.206,4.471-0.534 c2.645-0.631,4.999-1.68,7.195-2.906c3.834-2.172,7.255-4.938,10.494-7.838c1.748-1.571,3.434-3.185,5.035-4.774 c-0.425,1.668-0.868,3.325-1.298,4.944c-0.831,3.125-1.638,6.128-2.269,9.021c-0.316,1.45-0.582,2.875-0.789,4.301 c-0.2,1.431-0.334,2.857-0.334,4.355c0.006,1.499,0.127,3.082,0.588,4.792c0.34,1.28,0.873,2.639,1.729,3.95 c0.637,0.983,1.444,1.935,2.384,2.736c1.408,1.213,3.088,2.069,4.72,2.554c1.638,0.492,3.227,0.662,4.762,0.668 c0.734-0.006,1.462-0.043,2.19-0.109l0.012-0.006c0.813-0.085,1.456-0.219,2.099-0.37c1.219-0.29,2.402-0.679,3.724-1.17 c2.457-0.916,5.35-2.202,8.663-3.883c5.769-2.942,12.764-7.086,20.116-12.43c11.011-8.014,22.822-18.697,32.085-32.152 c4.623-6.728,8.596-14.159,11.423-22.276c2.421-6.94,3.979-14.378,4.38-22.228c2.475,1.535,5.01,3.24,7.583,5.102 c12.436,8.997,25.758,21.554,38.57,35.567c19.254,21.02,37.441,45.346,50.66,65.941c6.606,10.289,11.981,19.668,15.608,27.087 c1.808,3.7,3.173,6.922,4.022,9.39c0.158,0.467,0.298,0.892,0.419,1.298C493.17,270.496,491.811,270.568,490.252,270.605z"></path> </g> </g>

</svg><style>@media (prefers-color-scheme: light) { :root { filter: none; } }
</style></svg>

<?xml version="1.0" encoding="UTF-8"?>
<svg xmlns="http://www.w3.org/2000/svg" xmlns:xlink="http://www.w3.org/1999/xlink" width="40px" height="40px" viewBox="0 0 40 40" version="1.1">
<g id="surface1">
<path style="fill-rule:nonzero;fill:rgb(0%,0%,0%);fill-opacity:1;stroke-width:10.752;stroke-linecap:butt;stroke-linejoin:miter;stroke:rgb(76.078433%,75.686276%,75.686276%);stroke-opacity:1;stroke-miterlimit:4;" d="M 511.65 269.65 C 511.2 267.25 510.5 264.9 509.55 262.3 C 507.75 257.45 505.15 251.95 501.8 245.7 C 495.95 234.75 487.9 221.8 478.3 208.05 C 463.9 187.45 446.2 165.2 427.7 146.15 C 418.45 136.65 408.95 127.95 399.55 120.7 C 390.1 113.4 380.75 107.5 371.45 103.7 C 368.6 102.55 365.35 103 362.95 104.9 C 360.55 106.8 359.3 109.8 359.75 112.85 C 360.2 115.95 360.4 119 360.4 121.95 C 360.4 128.1 359.5 133.9 357.9 139.45 C 355.05 149.15 350 158 343.75 165.9 C 334.4 177.75 322.35 187.35 312.1 193.85 C 307 197.1 302.3 199.6 298.75 201.3 C 297.7 201.75 296.8 202.15 296 202.45 C 296.25 201.2 296.6 199.75 297 198.1 C 297.85 194.6 299.05 190.4 300.2 185.8 C 301.35 181.15 302.45 176.15 303.05 170.85 C 303.25 169.4 303.35 168.1 303.35 166.8 C 303.35 165.85 303.3 164.85 303.1 163.8 C 303 163 302.8 162.15 302.4 161.2 C 302.15 160.5 301.75 159.75 301.2 159 C 300.4 157.8 299.15 156.6 297.65 155.85 C 296.9 155.45 296.1 155.2 295.3 155 C 294.55 154.8 293.8 154.75 293.1 154.75 C 292.05 154.75 291.15 154.9 290.4 155.1 C 288.9 155.5 287.85 156.05 286.9 156.6 C 286.05 157.1 285.3 157.65 284.6 158.2 C 283.25 159.2 282 160.35 280.7 161.6 C 278.5 163.7 276.15 166.15 273.7 168.65 C 271.85 170.5 270 172.4 268.1 174.15 C 265.35 176.75 262.55 179.05 260.25 180.45 C 259.1 181.2 258.1 181.7 257.35 181.95 C 256.6 182.25 256.1 182.3 256 182.3 C 255.95 182.3 255.75 182.25 255.45 182.2 C 254.85 182.05 253.9 181.7 252.7 181.05 C 250.6 179.85 247.95 177.8 245.25 175.4 C 243.2 173.55 241.15 171.5 239.1 169.45 C 237.6 167.9 236.1 166.4 234.65 164.9 C 233.55 163.8 232.5 162.75 231.45 161.75 C 229.85 160.25 228.4 158.85 226.7 157.65 C 225.8 157 224.9 156.45 223.75 155.9 C 223.15 155.6 222.5 155.35 221.7 155.15 C 220.9 154.9 220 154.75 218.9 154.75 C 218.1 154.75 217.2 154.85 216.25 155.1 C 215.45 155.35 214.6 155.65 213.85 156.1 C 212.55 156.9 211.45 158 210.75 159.05 C 210.2 159.85 209.8 160.6 209.55 161.35 C 209.15 162.4 208.95 163.35 208.8 164.25 C 208.7 165.15 208.65 166 208.65 166.8 C 208.65 168.1 208.75 169.4 208.9 170.85 C 209.9 178.9 211.9 186.4 213.6 192.65 C 214.4 195.75 215.15 198.6 215.65 200.9 C 215.8 201.45 215.9 202 216 202.5 C 214.65 201.9 212.95 201.15 211.1 200.25 C 206.2 197.8 199.9 194.1 193.25 189.35 C 183.3 182.25 172.7 172.65 164.8 161.25 C 160.8 155.55 157.5 149.4 155.2 142.85 C 152.9 136.3 151.6 129.4 151.6 121.95 C 151.6 119 151.8 116 152.25 112.85 C 152.65 109.85 151.45 106.8 149.05 104.9 C 146.65 103 143.4 102.55 140.55 103.7 C 132.75 106.9 124.9 111.55 117 117.3 C 103.2 127.3 89.2 140.55 75.85 155.15 C 55.8 177.05 37.2 201.95 23.4 223.4 C 16.55 234.1 10.9 243.95 6.85 252.2 C 4.8 256.35 3.2 260.1 2 263.55 C 1.4 265.25 0.95 266.9 0.6 268.5 C 0.25 270.1 0 271.65 0 273.4 C 0 274.6 0.1 275.9 0.5 277.35 C 0.75 278.05 1 278.85 1.45 279.6 C 1.85 280.4 2.4 281.15 3.05 281.9 C 4.55 283.5 6.3 284.6 8 285.4 C 9.55 286.15 11.15 286.6 12.65 286.9 C 15.5 287.45 18.2 287.6 20.95 287.65 C 23.4 287.75 25.9 287.75 28.45 287.8 C 32.95 287.9 37.6 288.1 42.4 289.05 C 46 289.7 49.65 290.75 53.35 292.4 C 58.85 294.8 64.5 298.55 70.2 304.65 C 75.95 310.75 81.7 319.25 87.1 331.2 C 88.25 333.75 90.5 335.55 93.25 336.1 C 95.95 336.6 98.75 335.8 100.75 333.9 C 105.2 329.7 109.65 326.6 113.9 324.6 C 118.2 322.55 122.25 321.6 126 321.6 C 129.35 321.6 132.5 322.3 135.8 323.85 C 138.2 325.05 140.7 326.7 143.2 329.05 C 147 332.5 150.8 337.45 154.35 344.1 C 157.95 350.75 161.25 359.1 164.1 369.2 C 164.85 371.9 166.85 374.05 169.45 374.95 C 172.1 375.9 175 375.5 177.25 373.9 C 183.65 369.35 189.3 366.35 194.2 364.5 C 199.15 362.6 203.35 361.9 206.95 361.9 C 209.65 361.9 212.1 362.3 214.35 363 C 216.35 363.6 218.2 364.5 220.05 365.6 C 223.2 367.5 226.2 370.15 229 373.25 C 233.15 378 236.85 383.8 240.05 389.5 C 241.65 392.3 243.15 395.1 244.55 397.75 C 246 400.35 247.4 402.8 248.85 405.05 C 250.45 407.45 253.1 408.9 256 408.9 C 258.9 408.9 261.55 407.45 263.15 405.05 C 264.45 403.1 265.65 401 266.9 398.75 C 269.05 394.8 271.35 390.45 273.9 386.1 C 275.85 382.85 277.95 379.65 280.2 376.7 C 283.6 372.3 287.35 368.5 291.4 365.95 C 293.45 364.65 295.55 363.65 297.75 362.95 C 300 362.3 302.4 361.9 305.05 361.9 C 308.65 361.9 312.85 362.65 317.8 364.5 C 322.7 366.35 328.35 369.35 334.75 373.9 C 337 375.5 339.9 375.9 342.55 374.95 C 345.15 374.05 347.15 371.9 347.9 369.2 C 350.45 360.2 353.35 352.6 356.45 346.4 C 358.8 341.7 361.25 337.75 363.75 334.55 C 367.5 329.75 371.3 326.5 375 324.5 C 378.7 322.5 382.25 321.6 386 321.6 C 389.8 321.6 393.8 322.55 398.1 324.6 C 402.35 326.6 406.8 329.7 411.25 333.9 C 413.25 335.8 416.05 336.6 418.8 336.1 C 421.5 335.55 423.75 333.75 424.9 331.2 C 428.5 323.3 432.2 316.9 435.95 311.7 C 439.25 307.2 442.6 303.55 445.85 300.65 C 451.65 295.6 457.25 292.65 462.8 290.8 C 471.1 288 479.25 287.8 486.7 287.75 C 488.6 287.7 490.4 287.7 492.2 287.65 C 494.95 287.5 497.6 287.35 500.4 286.65 C 501.8 286.3 503.25 285.8 504.75 285.05 C 506.2 284.3 507.7 283.25 508.95 281.9 C 509.6 281.15 510.15 280.4 510.55 279.6 C 511.2 278.45 511.55 277.3 511.75 276.3 C 511.95 275.25 512 274.3 512 273.4 C 512 272.1 511.85 270.85 511.65 269.65 Z M 490.25 270.6 C 486 270.7 480.25 270.6 473.7 271.2 C 468.85 271.7 463.45 272.6 457.85 274.45 C 453.65 275.8 449.35 277.65 445.05 280.2 C 438.6 284 432.15 289.35 426.15 296.55 C 422 301.55 418 307.4 414.25 314.3 C 411.4 312.3 408.45 310.6 405.4 309.15 C 399.2 306.2 392.65 304.5 386 304.55 C 380.15 304.5 374.3 305.85 368.85 308.45 C 364.7 310.45 360.8 313.15 357.2 316.5 C 351.75 321.55 346.9 328.05 342.6 336 C 339.8 341.25 337.2 347.2 334.9 353.75 C 331.1 351.6 327.4 349.85 323.8 348.5 C 317.25 346 310.95 344.85 305.05 344.85 C 300.65 344.85 296.45 345.5 292.6 346.7 C 289.2 347.75 286.05 349.2 283.2 350.95 C 278.15 354 273.9 357.85 270.25 361.95 C 264.75 368.15 260.6 374.95 257.1 381.05 C 256.75 381.75 256.35 382.4 256 383.05 C 255 381.2 253.9 379.3 252.75 377.35 C 250.6 373.75 248.15 370 245.35 366.3 C 241.15 360.85 236.1 355.55 229.75 351.5 C 226.55 349.5 223.05 347.8 219.25 346.65 C 215.45 345.45 211.3 344.8 206.95 344.85 C 201.05 344.8 194.75 346 188.2 348.5 C 184.6 349.85 180.9 351.6 177.15 353.75 C 175.2 348.3 173.1 343.3 170.8 338.75 C 168.05 333.2 165 328.3 161.75 324.1 C 156.8 317.75 151.3 312.85 145.2 309.5 C 139.15 306.2 132.55 304.5 126 304.5 C 119.35 304.5 112.8 306.2 106.6 309.15 C 103.6 310.6 100.65 312.3 97.8 314.3 C 95.25 309.65 92.6 305.45 89.85 301.7 C 85.9 296.2 81.75 291.65 77.45 287.85 C 69.95 281.25 62.1 277.1 54.6 274.6 C 43.4 270.85 33.05 270.75 25.5 270.65 C 23.6 270.65 21.9 270.6 20.45 270.55 C 19.4 270.55 18.5 270.45 17.75 270.4 C 17.95 269.75 18.2 269 18.5 268.2 C 19.85 264.5 22.15 259.5 25.25 253.75 C 30.65 243.65 38.45 231.1 47.7 217.8 C 61.6 197.9 78.85 176.25 96.55 158.1 C 105.4 149.05 114.3 140.85 122.9 134.2 C 126.9 131.1 130.85 128.35 134.6 126 C 134.95 132.4 136 138.5 137.7 144.25 C 141.3 156.5 147.55 167.25 154.85 176.5 C 165.85 190.4 179.25 200.95 190.7 208.25 C 196.45 211.9 201.75 214.75 206.05 216.75 C 208.25 217.8 210.2 218.6 211.9 219.2 C 212.8 219.5 213.6 219.8 214.4 220 C 215.25 220.2 216.05 220.4 217.1 220.5 C 217.85 220.6 218.55 220.6 219.3 220.6 C 221.1 220.6 223.05 220.4 225 219.65 C 226.45 219.1 227.9 218.25 229.1 217.15 C 230 216.3 230.8 215.35 231.4 214.35 C 232.3 212.85 232.8 211.35 233.1 209.95 C 233.4 208.5 233.5 207.2 233.5 205.95 C 233.5 204.45 233.35 203 233.15 201.6 C 232.8 199.1 232.25 196.6 231.6 193.95 C 230.75 190.55 229.75 187 228.8 183.3 C 229.9 184.4 231.05 185.5 232.2 186.6 C 235.45 189.6 238.9 192.55 242.65 194.95 C 244.55 196.1 246.55 197.2 248.75 198 C 250.95 198.8 253.35 199.35 256 199.35 C 257.6 199.35 259.05 199.15 260.5 198.85 C 263.1 198.2 265.5 197.15 267.65 195.9 C 271.5 193.75 274.95 191 278.15 188.1 C 279.9 186.5 281.6 184.9 283.2 183.3 C 282.8 185 282.35 186.65 281.9 188.25 C 281.05 191.4 280.25 194.4 279.65 197.25 C 279.3 198.7 279.05 200.15 278.85 201.6 C 278.65 203 278.5 204.45 278.5 205.95 C 278.5 207.45 278.65 209 279.1 210.7 C 279.45 212 279.95 213.35 280.85 214.65 C 281.45 215.65 282.25 216.6 283.2 217.4 C 284.6 218.6 286.3 219.5 287.95 219.95 C 289.55 220.45 291.15 220.6 292.7 220.65 C 293.45 220.6 294.15 220.6 294.9 220.5 C 295.7 220.45 296.35 220.3 297 220.15 C 298.2 219.85 299.4 219.45 300.7 219 C 303.2 218.05 306.05 216.75 309.4 215.1 C 315.15 212.15 322.15 208 329.5 202.65 C 340.5 194.65 352.3 183.95 361.6 170.5 C 366.2 163.8 370.2 156.35 373 148.25 C 375.45 141.3 377 133.85 377.4 126 C 379.85 127.55 382.4 129.25 384.95 131.1 C 397.4 140.1 410.75 152.65 423.55 166.7 C 442.8 187.7 461 212 474.2 232.6 C 480.8 242.9 486.2 252.3 489.8 259.7 C 491.6 263.4 493 266.65 493.85 269.1 C 494 269.55 494.15 270 494.25 270.4 C 493.15 270.5 491.8 270.55 490.25 270.6 Z M 490.25 270.6 " transform="matrix(0.078125,0,0,0.078125,0,0)"/>
</g>
</svg>
